X: 32460
T: Pitchfork, The
R: reel
M: 4/4
K: Dmajor
|:f~d3 defe|d2fd eAAB|c~A3 e~A3|cAeA cdeg|
f~d3 defe|d2fd eAAB|c~A3 e~A3|1 fgfe dfag:|2 fgfe dBga||
|:b~g3 agbg|afef Adfd|ecBc Acec|dfec dega|
b~g3 dgbg|afef Adfd|ecBc Acec|1 dfec dega:|2 dfec deag||

